public/game/audio.svg

<svg width="62" height="48" viewBox="0 0 62 48" fill="none" xmlns="http://www.w3.org/2000/svg">
<path d="M32.3277 0.377232C31.8244 0.170016 31.2723 0.0935974 30.7277 0.155776C30.1832 0.217954 29.6658 0.416502 29.2282 0.731155L14.4126 11.8797H3.09949C2.27746 11.8797 1.48909 12.1905 0.90782 12.7436C0.326553 13.2967 0 14.0469 0 14.8291V32.5253C0 33.3075 0.326553 34.0577 0.90782 34.6108C1.48909 35.1639 2.27746 35.4746 3.09949 35.4746H14.4126L29.0732 46.6232C29.6186 47.0396 30.2958 47.2682 30.9949 47.2721C31.4579 47.2794 31.9156 47.1781 32.3277 46.9772C32.8552 46.7381 33.3009 46.3621 33.6135 45.8924C33.926 45.4228 34.0928 44.8786 34.0944 44.3227V3.03166C34.0928 2.47574 33.926 1.93159 33.6135 1.46194C33.3009 0.992296 32.8552 0.616274 32.3277 0.377232ZM27.8954 38.1881L17.4192 30.2248C16.8738 29.8084 16.1966 29.5798 15.4975 29.5759H6.19899V17.7785H15.4975C16.1966 17.7746 16.8738 17.5459 17.4192 17.1296L27.8954 9.16633V38.1881ZM54.737 6.9838C54.1534 6.42843 53.3618 6.11642 52.5364 6.11642C51.711 6.11642 50.9194 6.42843 50.3358 6.9838C49.7521 7.53918 49.4242 8.29243 49.4242 9.07785C49.4242 9.86327 49.7521 10.6165 50.3358 11.1719C52.1609 12.9059 53.587 14.9823 54.5236 17.269C55.4601 19.5557 55.8865 22.0027 55.7757 24.4547C55.665 26.9066 55.0194 29.3099 53.8802 31.5116C52.7409 33.7134 51.1328 35.6657 49.158 37.2443C48.6784 37.6345 48.3353 38.1547 48.1748 38.7354C48.0142 39.3161 48.0437 39.9295 48.2593 40.4938C48.475 41.0581 48.8665 41.5464 49.3815 41.8933C49.8966 42.2402 50.5107 42.4292 51.1416 42.4351C51.8658 42.4365 52.5677 42.1965 53.1253 41.7568C55.7628 39.6548 57.9117 37.0535 59.4354 34.1183C60.9592 31.1832 61.8243 27.9785 61.9759 24.7079C62.1275 21.4374 61.5622 18.1726 60.316 15.1212C59.0697 12.0698 57.1698 9.29862 54.737 6.9838ZM45.9655 15.3305C45.6765 15.0555 45.3334 14.8374 44.9558 14.6885C44.5782 14.5397 44.1735 14.4631 43.7648 14.4631C43.3562 14.4631 42.9515 14.5397 42.5739 14.6885C42.1963 14.8374 41.8532 15.0555 41.5642 15.3305C41.2752 15.6055 41.046 15.932 40.8896 16.2913C40.7332 16.6506 40.6527 17.0356 40.6527 17.4245C40.6527 17.8134 40.7332 18.1985 40.8896 18.5578C41.046 18.9171 41.2752 19.2436 41.5642 19.5186C42.7283 20.6197 43.386 22.1153 43.3929 23.6772C43.3936 24.5365 43.1971 25.3856 42.817 26.165C42.4368 26.9445 41.8823 27.6355 41.1923 28.1897C40.8784 28.4373 40.619 28.7414 40.4288 29.0845C40.2387 29.4277 40.1215 29.8032 40.0841 30.1895C40.0467 30.5758 40.0897 30.9653 40.2107 31.3358C40.3317 31.7062 40.5283 32.0503 40.7893 32.3483C41.0517 32.6448 41.373 32.8892 41.7347 33.0675C42.0964 33.2458 42.4915 33.3544 42.8974 33.3873C43.3033 33.4202 43.712 33.3766 44.1002 33.2591C44.4883 33.1415 44.8483 32.9523 45.1596 32.7022C46.5454 31.5966 47.6603 30.2158 48.4259 28.6567C49.1916 27.0977 49.5896 25.3981 49.5919 23.6772C49.5744 20.5512 48.2729 17.5556 45.9655 15.3305Z" fill="#ADBAFF"/>
</svg>

<svg width="62" height="48" fill="none" xmlns="http://www.w3.org/2000/svg"><path d="M32.328.377a3.242 3.242 0 0 0-1.6-.221 3.19 3.19 0 0 0-1.5.575L14.413 11.88H3.099c-.822 0-1.61.31-2.191.864A2.879 2.879 0 0 0 0 14.829v17.696c0 .782.327 1.533.908 2.086.581.553 1.37.864 2.191.864h11.314l14.66 11.148a3.2 3.2 0 0 0 1.922.65c.463.006.92-.095 1.333-.296.527-.239.973-.615 1.285-1.085.313-.47.48-1.013.481-1.57V3.033a2.846 2.846 0 0 0-.48-1.57A3.055 3.055 0 0 0 32.328.377Zm-4.433 37.811L17.42 30.225a3.2 3.2 0 0 0-1.921-.65H6.199V17.78h9.299a3.2 3.2 0 0 0 1.921-.65l10.476-7.963v29.022ZM54.737 6.984a3.194 3.194 0 0 0-2.2-.868c-.826 0-1.618.312-2.201.868a2.89 2.89 0 0 0-.912 2.094c0 .785.328 1.539.912 2.094a17.643 17.643 0 0 1 4.188 6.097 16.927 16.927 0 0 1 1.252 7.186 17.017 17.017 0 0 1-1.896 7.057 17.856 17.856 0 0 1-4.722 5.732c-.48.39-.823.91-.983 1.491-.16.581-.131 1.194.084 1.759a2.972 2.972 0 0 0 1.123 1.4c.515.346 1.129.535 1.76.541a3.197 3.197 0 0 0 1.983-.678 23.812 23.812 0 0 0 6.31-7.639 22.69 22.69 0 0 0 2.54-9.41 22.57 22.57 0 0 0-1.659-9.587 23.52 23.52 0 0 0-5.579-8.137Zm-8.772 8.347a3.129 3.129 0 0 0-1.01-.643 3.25 3.25 0 0 0-2.381 0c-.378.15-.72.367-1.01.643a2.956 2.956 0 0 0-.674.96 2.837 2.837 0 0 0 0 2.267c.156.36.385.686.674.96 1.164 1.102 1.822 2.597 1.829 4.16a5.66 5.66 0 0 1-.576 2.487c-.38.78-.935 1.47-1.625 2.025a2.984 2.984 0 0 0-.763.894 2.815 2.815 0 0 0-.218 2.251c.12.371.317.715.578 1.013.263.297.584.541.946.72a3.25 3.25 0 0 0 2.366.192 3.15 3.15 0 0 0 1.059-.558 11.886 11.886 0 0 0 3.266-4.045 11.32 11.32 0 0 0 1.166-4.98c-.018-3.126-1.32-6.121-3.627-8.346Z" fill="#ADBAFF"/></svg>
